Tests/assets/xmp/lightroom-crop-plain.xmp
<x:xmpmeta xmlns:x="adobe:ns:meta/" x:xmptk="Adobe XMP Core 7.0-c000 1.000000, 0000/00/00-00:00:00        ">
 <rdf:RDF xmlns:rdf="http://www.w3.org/1999/02/22-rdf-syntax-ns#">
  <rdf:Description rdf:about=""
    xmlns:xmp="http://ns.adobe.com/xap/1.0/"
    xmlns:aux="http://ns.adobe.com/exif/1.0/aux/"
    xmlns:tiff="http://ns.adobe.com/tiff/1.0/"
    xmlns:exif="http://ns.adobe.com/exif/1.0/"
    xmlns:photoshop="http://ns.adobe.com/photoshop/1.0/"
    xmlns:xmpMM="http://ns.adobe.com/xap/1.0/mm/"
    xmlns:stEvt="http://ns.adobe.com/xap/1.0/sType/ResourceEvent#"
    xmlns:dc="http://purl.org/dc/elements/1.1/"
    xmlns:crd="http://ns.adobe.com/camera-raw-defaults/1.0/"
    xmlns:xmpDM="http://ns.adobe.com/xmp/1.0/DynamicMedia/"
    xmlns:crs="http://ns.adobe.com/camera-raw-settings/1.0/"
    xmlns:crss="http://ns.adobe.com/camera-raw-saved-settings/1.0/"
   xmp:CreatorTool="Digital Camera X30 Ver1.03"
   xmp:ModifyDate="2016-06-04T15:47:39"
   xmp:CreateDate="2016-06-04T15:47:39"
   xmp:MetadataDate="2026-08-30T17:51:34-07:00"
   xmp:Rating="3"
   xmp:Label="Yellow"
   aux:FujiRatingAlreadyApplied="True"
   tiff:Make="FUJIFILM"
   tiff:Model="X30"
   tiff:Orientation="1"
   tiff:ImageWidth="4000"
   tiff:ImageLength="3000"
   exif:ExifVersion="0230"
   exif:ExposureTime="1/800"
   exif:ShutterSpeedValue="9643856/1000000"
   exif:FNumber="56/10"
   exif:ApertureValue="4970854/1000000"
   exif:ExposureProgram="1"
   exif:SensitivityType="1"
   exif:BrightnessValue="880/100"
   exif:ExposureBiasValue="0/100"
   exif:MaxApertureValue="200/100"
   exif:MeteringMode="3"
   exif:LightSource="0"
   exif:FocalLength="710/100"
   exif:SensingMethod="2"
   exif:FileSource="3"
   exif:SceneType="1"
   exif:CustomRendered="0"
   exif:ExposureMode="1"
   exif:WhiteBalance="0"
   exif:SceneCaptureType="0"
   exif:Sharpness="0"
   exif:SubjectDistanceRange="0"
   exif:FocalPlaneXResolution="148945455/32768"
   exif:FocalPlaneYResolution="148945455/32768"
   exif:FocalPlaneResolutionUnit="3"
   exif:DateTimeOriginal="2016-06-04T15:47:39"
   exif:PixelXDimension="4000"
   exif:PixelYDimension="3000"
   photoshop:DateCreated="2016-06-04T15:47:39"
   photoshop:LabelColor="yellow"
   photoshop:SidecarForExtension="RAF"
   photoshop:EmbeddedXMPDigest="00000000000000000000000000000000"
   xmpMM:DocumentID="9CE6CB15295BF7F7683A0ED1F9DD27A9"
   xmpMM:PreservedFileName="fujifilm-x30.raf"
   xmpMM:OriginalDocumentID="9CE6CB15295BF7F7683A0ED1F9DD27A9"
   xmpMM:InstanceID="xmp.iid:cdc8d4dd-4584-6a49-ba16-5e5ec8c06849"
   dc:format="image/x-fuji-raw"
   crd:CameraProfile="Camera PROVIA/Standard"
   crd:LookName=""
   xmpDM:pick="1"
   xmpDM:good="true"
   crs:CropTop="0.084919"
   crs:CropLeft="0.210989"
   crs:CropBottom="0.8653"
   crs:CropRight="0.714286"
   crs:CropAngle="0"
   crs:CropConstrainToWarp="0"
   crs:CropConstrainToUnitSquare="1"
   crs:HasCrop="True"
   crs:AlreadyApplied="False"
   crs:RawFileName="fujifilm-x30.raf">
   <exif:ISOSpeedRatings>
    <rdf:Seq>
     <rdf:li>100</rdf:li>
    </rdf:Seq>
   </exif:ISOSpeedRatings>
   <exif:Flash
    exif:Fired="False"
    exif:Return="0"
    exif:Mode="2"
    exif:Function="False"
    exif:RedEyeMode="False"/>
   <xmpMM:History>
    <rdf:Seq>
     <rdf:li
      stEvt:action="saved"
      stEvt:instanceID="xmp.iid:cdc8d4dd-4584-6a49-ba16-5e5ec8c06849"
      stEvt:when="2026-08-30T17:51:34-07:00"
      stEvt:softwareAgent="Adobe Photoshop Lightroom Classic 15.5.1 (Windows)"
      stEvt:changed="/metadata"/>
    </rdf:Seq>
   </xmpMM:History>
   <crss:SavedSettings>
    <rdf:Bag>
     <rdf:li>
      <rdf:Description
       crss:Name="step0"
       crss:Type="Snapshot"
       crss:TIFFOrientation="1">
      <crss:Parameters>
       <rdf:Description
        crs:Version="18.5.1"
        crs:ProcessVersion="15.4"
        crs:WhiteBalance="As Shot"
        crs:Temperature="4900"
        crs:Tint="+19"
        crs:Exposure2012="0.00"
        crs:Contrast2012="0"
        crs:Highlights2012="0"
        crs:Shadows2012="0"
        crs:Whites2012="0"
        crs:Blacks2012="0"
        crs:Texture="0"
        crs:Clarity2012="0"
        crs:Dehaze="0"
        crs:Vibrance="0"
        crs:Saturation="0"
        crs:ParametricShadows="0"
        crs:ParametricDarks="0"
        crs:ParametricLights="0"
        crs:ParametricHighlights="0"
        crs:ParametricShadowSplit="25"
        crs:ParametricMidtoneSplit="50"
        crs:ParametricHighlightSplit="75"
        crs:Sharpness="40"
        crs:SharpenRadius="+1.0"
        crs:SharpenDetail="25"
        crs:SharpenEdgeMasking="0"
        crs:LuminanceSmoothing="0"
        crs:ColorNoiseReduction="25"
        crs:ColorNoiseReductionDetail="50"
        crs:ColorNoiseReductionSmoothness="50"
        crs:HueAdjustmentRed="0"
        crs:HueAdjustmentOrange="0"
        crs:HueAdjustmentYellow="0"
        crs:HueAdjustmentGreen="0"
        crs:HueAdjustmentAqua="0"
        crs:HueAdjustmentBlue="0"
        crs:HueAdjustmentPurple="0"
        crs:HueAdjustmentMagenta="0"
        crs:SaturationAdjustmentRed="0"
        crs:SaturationAdjustmentOrange="0"
        crs:SaturationAdjustmentYellow="0"
        crs:SaturationAdjustmentGreen="0"
        crs:SaturationAdjustmentAqua="0"
        crs:SaturationAdjustmentBlue="0"
        crs:SaturationAdjustmentPurple="0"
        crs:SaturationAdjustmentMagenta="0"
        crs:LuminanceAdjustmentRed="0"
        crs:LuminanceAdjustmentOrange="0"
        crs:LuminanceAdjustmentYellow="0"
        crs:LuminanceAdjustmentGreen="0"
        crs:LuminanceAdjustmentAqua="0"
        crs:LuminanceAdjustmentBlue="0"
        crs:LuminanceAdjustmentPurple="0"
        crs:LuminanceAdjustmentMagenta="0"
        crs:SplitToningShadowHue="0"
        crs:SplitToningShadowSaturation="0"
        crs:SplitToningHighlightHue="0"
        crs:SplitToningHighlightSaturation="0"
        crs:SplitToningBalance="0"
        crs:ColorGradeMidtoneHue="0"
        crs:ColorGradeMidtoneSat="0"
        crs:ColorGradeShadowLum="0"
        crs:ColorGradeMidtoneLum="0"
        crs:ColorGradeHighlightLum="0"
        crs:ColorGradeBlending="50"
        crs:ColorGradeGlobalHue="0"
        crs:ColorGradeGlobalSat="0"
        crs:ColorGradeGlobalLum="0"
        crs:AutoLateralCA="1"
        crs:LensProfileEnable="0"
        crs:LensManualDistortionAmount="0"
        crs:VignetteAmount="0"
        crs:DefringePurpleAmount="0"
        crs:DefringePurpleHueLo="30"
        crs:DefringePurpleHueHi="70"
        crs:DefringeGreenAmount="0"
        crs:DefringeGreenHueLo="40"
        crs:DefringeGreenHueHi="60"
        crs:PerspectiveUpright="0"
        crs:PerspectiveVertical="0"
        crs:PerspectiveHorizontal="0"
        crs:PerspectiveRotate="0.0"
        crs:PerspectiveAspect="0"
        crs:PerspectiveScale="100"
        crs:PerspectiveX="0.00"
        crs:PerspectiveY="0.00"
        crs:GrainAmount="0"
        crs:PostCropVignetteAmount="0"
        crs:ShadowTint="0"
        crs:RedHue="0"
        crs:RedSaturation="0"
        crs:GreenHue="0"
        crs:GreenSaturation="0"
        crs:BlueHue="0"
        crs:BlueSaturation="0"
        crs:HDREditMode="0"
        crs:OverrideLookVignette="False"
        crs:ToneCurveName2012="Linear"
        crs:CameraProfile="Adobe Standard"
        crs:CropTop="0"
        crs:CropLeft="0"
        crs:CropBottom="1"
        crs:CropRight="1"
        crs:CropAngle="0"
        crs:CropConstrainToWarp="0"
        crs:CropConstrainToUnitSquare="1">
       <crs:ToneCurvePV2012>
        <rdf:Seq>
         <rdf:li>0, 0</rdf:li>
         <rdf:li>255, 255</rdf:li>
        </rdf:Seq>
       </crs:ToneCurvePV2012>
       <crs:ToneCurvePV2012Red>
        <rdf:Seq>
         <rdf:li>0, 0</rdf:li>
         <rdf:li>255, 255</rdf:li>
        </rdf:Seq>
       </crs:ToneCurvePV2012Red>
       <crs:ToneCurvePV2012Green>
        <rdf:Seq>
         <rdf:li>0, 0</rdf:li>
         <rdf:li>255, 255</rdf:li>
        </rdf:Seq>
       </crs:ToneCurvePV2012Green>
       <crs:ToneCurvePV2012Blue>
        <rdf:Seq>
         <rdf:li>0, 0</rdf:li>
         <rdf:li>255, 255</rdf:li>
        </rdf:Seq>
       </crs:ToneCurvePV2012Blue>
       <crs:PointColors>
        <rdf:Seq>
         <rdf:li>-1.000000, -1.000000, -1.000000, -1.000000, -1.000000, -1.000000, -1.000000, -1.000000, -1.000000, -1.000000, -1.000000, -1.000000, -1.000000, -1.000000, -1.000000, -1.000000, -1.000000, -1.000000, -1.000000</rdf:li>
        </rdf:Seq>
       </crs:PointColors>
       <crs:ColorVariance>
        <rdf:Seq>
         <rdf:li>-50.000000</rdf:li>
        </rdf:Seq>
       </crs:ColorVariance>
       <crs:Look>
        <rdf:Description
         crss:Name="Adobe Color"
         crss:Amount="1"
         crss:UUID="B952C231111CD8E0ECCF14B86BAA7077"
         crss:SupportsAmount="false"
         crss:SupportsMonochrome="false"
         crss:SupportsOutputReferred="false"
         crss:Copyright="© 2018 Adobe Systems, Inc.">
        <crss:Group>
         <rdf:Alt>
          <rdf:li xml:lang="x-default">Profiles</rdf:li>
         </rdf:Alt>
        </crss:Group>
        <crss:Parameters>
         <rdf:Description
          crss:Version="18.5.1"
          crss:ProcessVersion="15.4"
          crss:ConvertToGrayscale="False"
          crss:CameraProfile="Adobe Standard"
          crss:LookTable="E1095149FDB39D7A057BAB208837E2E1">
         <crss:ToneCurvePV2012>
          <rdf:Seq>
           <rdf:li>0, 0</rdf:li>
           <rdf:li>22, 16</rdf:li>
           <rdf:li>40, 35</rdf:li>
           <rdf:li>127, 127</rdf:li>
           <rdf:li>224, 230</rdf:li>
           <rdf:li>240, 246</rdf:li>
           <rdf:li>255, 255</rdf:li>
          </rdf:Seq>
         </crss:ToneCurvePV2012>
         <crss:ToneCurvePV2012Red>
          <rdf:Seq>
           <rdf:li>0, 0</rdf:li>
           <rdf:li>255, 255</rdf:li>
          </rdf:Seq>
         </crss:ToneCurvePV2012Red>
         <crss:ToneCurvePV2012Green>
          <rdf:Seq>
           <rdf:li>0, 0</rdf:li>
           <rdf:li>255, 255</rdf:li>
          </rdf:Seq>
         </crss:ToneCurvePV2012Green>
         <crss:ToneCurvePV2012Blue>
          <rdf:Seq>
           <rdf:li>0, 0</rdf:li>
           <rdf:li>255, 255</rdf:li>
          </rdf:Seq>
         </crss:ToneCurvePV2012Blue>
         <crss:PointColors>
          <rdf:Seq>
           <rdf:li>-1.000000, -1.000000, -1.000000, -1.000000, -1.000000, -1.000000, -1.000000, -1.000000, -1.000000, -1.000000, -1.000000, -1.000000, -1.000000, -1.000000, -1.000000, -1.000000, -1.000000, -1.000000, -1.000000</rdf:li>
          </rdf:Seq>
         </crss:PointColors>
         <crss:ColorVariance>
          <rdf:Seq>
           <rdf:li>-50.000000</rdf:li>
          </rdf:Seq>
         </crss:ColorVariance>
         </rdf:Description>
        </crss:Parameters>
        </rdf:Description>
       </crs:Look>
       </rdf:Description>
      </crss:Parameters>
      </rdf:Description>
     </rdf:li>
     <rdf:li>
      <rdf:Description
       crss:Name="step2"
       crss:Type="Snapshot"
       crss:TIFFOrientation="1">
      <crss:Parameters>
       <rdf:Description
        crs:Version="18.5.1"
        crs:ProcessVersion="15.4"
        crs:WhiteBalance="As Shot"
        crs:Temperature="4900"
        crs:Tint="+19"
        crs:Exposure2012="0.00"
        crs:Contrast2012="0"
        crs:Highlights2012="0"
        crs:Shadows2012="0"
        crs:Whites2012="0"
        crs:Blacks2012="0"
        crs:Texture="0"
        crs:Clarity2012="0"
        crs:Dehaze="0"
        crs:Vibrance="0"
        crs:Saturation="0"
        crs:ParametricShadows="0"
        crs:ParametricDarks="0"
        crs:ParametricLights="0"
        crs:ParametricHighlights="0"
        crs:ParametricShadowSplit="25"
        crs:ParametricMidtoneSplit="50"
        crs:ParametricHighlightSplit="75"
        crs:Sharpness="40"
        crs:SharpenRadius="+1.0"
        crs:SharpenDetail="25"
        crs:SharpenEdgeMasking="0"
        crs:LuminanceSmoothing="0"
        crs:ColorNoiseReduction="25"
        crs:ColorNoiseReductionDetail="50"
        crs:ColorNoiseReductionSmoothness="50"
        crs:HueAdjustmentRed="0"
        crs:HueAdjustmentOrange="0"
        crs:HueAdjustmentYellow="0"
        crs:HueAdjustmentGreen="0"
        crs:HueAdjustmentAqua="0"
        crs:HueAdjustmentBlue="0"
        crs:HueAdjustmentPurple="0"
        crs:HueAdjustmentMagenta="0"
        crs:SaturationAdjustmentRed="0"
        crs:SaturationAdjustmentOrange="0"
        crs:SaturationAdjustmentYellow="0"
        crs:SaturationAdjustmentGreen="0"
        crs:SaturationAdjustmentAqua="0"
        crs:SaturationAdjustmentBlue="0"
        crs:SaturationAdjustmentPurple="0"
        crs:SaturationAdjustmentMagenta="0"
        crs:LuminanceAdjustmentRed="0"
        crs:LuminanceAdjustmentOrange="0"
        crs:LuminanceAdjustmentYellow="0"
        crs:LuminanceAdjustmentGreen="0"
        crs:LuminanceAdjustmentAqua="0"
        crs:LuminanceAdjustmentBlue="0"
        crs:LuminanceAdjustmentPurple="0"
        crs:LuminanceAdjustmentMagenta="0"
        crs:SplitToningShadowHue="0"
        crs:SplitToningShadowSaturation="0"
        crs:SplitToningHighlightHue="0"
        crs:SplitToningHighlightSaturation="0"
        crs:SplitToningBalance="0"
        crs:ColorGradeMidtoneHue="0"
        crs:ColorGradeMidtoneSat="0"
        crs:ColorGradeShadowLum="0"
        crs:ColorGradeMidtoneLum="0"
        crs:ColorGradeHighlightLum="0"
        crs:ColorGradeBlending="50"
        crs:ColorGradeGlobalHue="0"
        crs:ColorGradeGlobalSat="0"
        crs:ColorGradeGlobalLum="0"
        crs:AutoLateralCA="1"
        crs:LensProfileEnable="0"
        crs:LensManualDistortionAmount="0"
        crs:VignetteAmount="0"
        crs:DefringePurpleAmount="0"
        crs:DefringePurpleHueLo="30"
        crs:DefringePurpleHueHi="70"
        crs:DefringeGreenAmount="0"
        crs:DefringeGreenHueLo="40"
        crs:DefringeGreenHueHi="60"
        crs:PerspectiveUpright="0"
        crs:PerspectiveVertical="0"
        crs:PerspectiveHorizontal="0"
        crs:PerspectiveRotate="0.0"
        crs:PerspectiveAspect="0"
        crs:PerspectiveScale="100"
        crs:PerspectiveX="0.00"
        crs:PerspectiveY="0.00"
        crs:GrainAmount="0"
        crs:PostCropVignetteAmount="0"
        crs:ShadowTint="0"
        crs:RedHue="0"
        crs:RedSaturation="0"
        crs:GreenHue="0"
        crs:GreenSaturation="0"
        crs:BlueHue="0"
        crs:BlueSaturation="0"
        crs:HDREditMode="0"
        crs:OverrideLookVignette="False"
        crs:ToneCurveName2012="Linear"
        crs:CameraProfile="Adobe Standard"
        crs:CropTop="0.084919"
        crs:CropLeft="0.210989"
        crs:CropBottom="0.8653"
        crs:CropRight="0.714286"
        crs:CropAngle="0"
        crs:CropConstrainToWarp="0"
        crs:CropConstrainToUnitSquare="1">
       <crs:ToneCurvePV2012>
        <rdf:Seq>
         <rdf:li>0, 0</rdf:li>
         <rdf:li>255, 255</rdf:li>
        </rdf:Seq>
       </crs:ToneCurvePV2012>
       <crs:ToneCurvePV2012Red>
        <rdf:Seq>
         <rdf:li>0, 0</rdf:li>
         <rdf:li>255, 255</rdf:li>
        </rdf:Seq>
       </crs:ToneCurvePV2012Red>
       <crs:ToneCurvePV2012Green>
        <rdf:Seq>
         <rdf:li>0, 0</rdf:li>
         <rdf:li>255, 255</rdf:li>
        </rdf:Seq>
       </crs:ToneCurvePV2012Green>
       <crs:ToneCurvePV2012Blue>
        <rdf:Seq>
         <rdf:li>0, 0</rdf:li>
         <rdf:li>255, 255</rdf:li>
        </rdf:Seq>
       </crs:ToneCurvePV2012Blue>
       <crs:PointColors>
        <rdf:Seq>
         <rdf:li>-1.000000, -1.000000, -1.000000, -1.000000, -1.000000, -1.000000, -1.000000, -1.000000, -1.000000, -1.000000, -1.000000, -1.000000, -1.000000, -1.000000, -1.000000, -1.000000, -1.000000, -1.000000, -1.000000</rdf:li>
        </rdf:Seq>
       </crs:PointColors>
       <crs:ColorVariance>
        <rdf:Seq>
         <rdf:li>-50.000000</rdf:li>
        </rdf:Seq>
       </crs:ColorVariance>
       <crs:Look>
        <rdf:Description
         crss:Name="Adobe Color"
         crss:Amount="1"
         crss:UUID="B952C231111CD8E0ECCF14B86BAA7077"
         crss:SupportsAmount="false"
         crss:SupportsMonochrome="false"
         crss:SupportsOutputReferred="false"
         crss:Copyright="© 2018 Adobe Systems, Inc.">
        <crss:Group>
         <rdf:Alt>
          <rdf:li xml:lang="x-default">Profiles</rdf:li>
         </rdf:Alt>
        </crss:Group>
        <crss:Parameters>
         <rdf:Description
          crss:Version="18.5.1"
          crss:ProcessVersion="15.4"
          crss:ConvertToGrayscale="False"
          crss:CameraProfile="Adobe Standard"
          crss:LookTable="E1095149FDB39D7A057BAB208837E2E1">
         <crss:ToneCurvePV2012>
          <rdf:Seq>
           <rdf:li>0, 0</rdf:li>
           <rdf:li>22, 16</rdf:li>
           <rdf:li>40, 35</rdf:li>
           <rdf:li>127, 127</rdf:li>
           <rdf:li>224, 230</rdf:li>
           <rdf:li>240, 246</rdf:li>
           <rdf:li>255, 255</rdf:li>
          </rdf:Seq>
         </crss:ToneCurvePV2012>
         <crss:ToneCurvePV2012Red>
          <rdf:Seq>
           <rdf:li>0, 0</rdf:li>
           <rdf:li>255, 255</rdf:li>
          </rdf:Seq>
         </crss:ToneCurvePV2012Red>
         <crss:ToneCurvePV2012Green>
          <rdf:Seq>
           <rdf:li>0, 0</rdf:li>
           <rdf:li>255, 255</rdf:li>
          </rdf:Seq>
         </crss:ToneCurvePV2012Green>
         <crss:ToneCurvePV2012Blue>
          <rdf:Seq>
           <rdf:li>0, 0</rdf:li>
           <rdf:li>255, 255</rdf:li>
          </rdf:Seq>
         </crss:ToneCurvePV2012Blue>
         <crss:PointColors>
          <rdf:Seq>
           <rdf:li>-1.000000, -1.000000, -1.000000, -1.000000, -1.000000, -1.000000, -1.000000, -1.000000, -1.000000, -1.000000, -1.000000, -1.000000, -1.000000, -1.000000, -1.000000, -1.000000, -1.000000, -1.000000, -1.000000</rdf:li>
          </rdf:Seq>
         </crss:PointColors>
         <crss:ColorVariance>
          <rdf:Seq>
           <rdf:li>-50.000000</rdf:li>
          </rdf:Seq>
         </crss:ColorVariance>
         </rdf:Description>
        </crss:Parameters>
        </rdf:Description>
       </crs:Look>
       </rdf:Description>
      </crss:Parameters>
      </rdf:Description>
     </rdf:li>
    </rdf:Bag>
   </crss:SavedSettings>
  </rdf:Description>
 </rdf:RDF>
</x:xmpmeta>
